icons/midnadark/actions/24/x-shape-formula.svg

<?xml version="1.0" encoding="UTF-8" standalone="no"?>
<!-- Created with Inkscape (http://www.inkscape.org/) -->

<svg
   xmlns:osb="http://www.openswatchbook.org/uri/2009/osb"
   xmlns:dc="http://purl.org/dc/elements/1.1/"
   xmlns:cc="http://creativecommons.org/ns#"
   xmlns:rdf="http://www.w3.org/1999/02/22-rdf-syntax-ns#"
   xmlns:svg="http://www.w3.org/2000/svg"
   xmlns="http://www.w3.org/2000/svg"
   xmlns:sodipodi="http://sodipodi.sourceforge.net/DTD/sodipodi-0.dtd"
   xmlns:inkscape="http://www.inkscape.org/namespaces/inkscape"
   width="22"
   height="22"
   id="svg3869"
   version="1.1"
   inkscape:version="0.91 r13725"
   sodipodi:docname="x-shape-formula.svg">
  <defs
     id="defs3871">
    <linearGradient
       id="linearGradient3257">
      <stop
         offset="0"
         style="stop-color:#a50000;stop-opacity:1"
         id="stop3259" />
      <stop
         offset="1"
         style="stop-color:#e73800;stop-opacity:1"
         id="stop3261" />
    </linearGradient>
    <clipPath
       clipPathUnits="userSpaceOnUse"
       id="clipPath4210">
      <rect
         y="1024.3622"
         x="-7"
         height="34"
         width="34"
         id="rect4212"
         style="opacity:1;fill:#0000ff;fill-opacity:0.51376145;stroke:none;stroke-opacity:1" />
    </clipPath>
    <clipPath
       clipPathUnits="userSpaceOnUse"
       id="clipPath4160">
      <rect
         style="opacity:1;fill:#aade87;fill-opacity:0.47247709;stroke:none;stroke-opacity:1"
         id="rect4162"
         width="32"
         height="32.000015"
         x="-6"
         y="1028.3619" />
    </clipPath>
    <linearGradient
       id="linearGradient4207"
       osb:paint="gradient">
      <stop
         style="stop-color:#3498db;stop-opacity:1;"
         offset="0"
         id="stop3371" />
      <stop
         style="stop-color:#3498db;stop-opacity:0;"
         offset="1"
         id="stop3373" />
    </linearGradient>
  </defs>
  <sodipodi:namedview
     id="base"
     pagecolor="#ffffff"
     bordercolor="#666666"
     borderopacity="1.0"
     inkscape:pageopacity="0.0"
     inkscape:pageshadow="2"
     inkscape:zoom="11.313708"
     inkscape:cx="-11.810311"
     inkscape:cy="6.5352192"
     inkscape:document-units="px"
     inkscape:current-layer="layer1"
     showgrid="true"
     fit-margin-top="0"
     fit-margin-left="0"
     fit-margin-right="0"
     fit-margin-bottom="0"
     inkscape:window-width="1366"
     inkscape:window-height="633"
     inkscape:window-x="0"
     inkscape:window-y="33"
     inkscape:window-maximized="1"
     inkscape:showpageshadow="false"
     inkscape:object-nodes="true"
     inkscape:snap-bbox="true">
    <inkscape:grid
       type="xygrid"
       id="grid4132" />
    <sodipodi:guide
       position="4,18"
       orientation="18,0"
       id="guide4138" />
    <sodipodi:guide
       position="5,3"
       orientation="0,18"
       id="guide4140" />
    <sodipodi:guide
       position="20,2.0000174"
       orientation="-18,0"
       id="guide4142" />
    <sodipodi:guide
       position="2,21"
       orientation="0,-18"
       id="guide4144" />
    <sodipodi:guide
       position="3,19.000017"
       orientation="16,0"
       id="guide4146" />
    <sodipodi:guide
       position="2,4"
       orientation="0,16"
       id="guide4148" />
    <sodipodi:guide
       position="21,20"
       orientation="-16,0"
       id="guide4150" />
    <sodipodi:guide
       position="2,20"
       orientation="0,-16"
       id="guide4152" />
  </sodipodi:namedview>
  <metadata
     id="metadata3874">
    <rdf:RDF>
      <cc:Work
         rdf:about="">
        <dc:format>image/svg+xml</dc:format>
        <dc:type
           rdf:resource="http://purl.org/dc/dcmitype/StillImage" />
        <dc:title />
      </cc:Work>
    </rdf:RDF>
  </metadata>
  <g
     inkscape:label="Capa 1"
     inkscape:groupmode="layer"
     id="layer1"
     transform="translate(-326,-534.3622)">
    <g
       transform="translate(329,-499)"
       id="layer1-06"
       inkscape:label="Capa 1">
      <g
         inkscape:label="Capa 1"
         id="layer1-4"
         transform="translate(-412.88298,512.00351)">
        <g
           transform="translate(392.57143,-514.5642)"
           id="layer1-7"
           inkscape:label="Capa 1"
           style="fill:#ffffff;fill-opacity:1" />
        <g
           id="g4240"
           transform="translate(341.79698,500.25245)">
          <g
             inkscape:transform-center-y="-9.4924686"
             inkscape:transform-center-x="5.4653607"
             inkscape:label="Capa 1"
             id="layer1-1"
             transform="translate(-392.98822,-511.27795)">
            <g
               inkscape:label="Capa 1"
               id="layer1-15"
               transform="matrix(1.3333333,0,0,1.3333333,-61.890355,-165.99713)">
              <g
                 transform="translate(392.57143,-514.5642)"
                 id="layer1-7-8"
                 inkscape:label="Capa 1"
                 style="fill:#ffffff;fill-opacity:1" />
              <g
                 id="g4240-4"
                 transform="translate(341.79698,500.25245)">
                <g
                   inkscape:transform-center-y="-9.4924686"
                   inkscape:transform-center-x="5.4653607"
                   inkscape:label="Capa 1"
                   id="layer1-1-5"
                   transform="translate(-392.98822,-511.27795)">
                  <g
                     id="layer1-3-8"
                     inkscape:label="Capa 1"
                     transform="translate(0.41988239,0.03484499)"
                     style="stroke:#1f2a47;stroke-opacity:1">
                    <g
                       transform="translate(440.36158,509.62534)"
                       id="g4186">
                      <g
                         style="stroke:#1f2a47;stroke-opacity:1"
                         transform="matrix(0.52109202,0,0,0.52109202,-0.76995909,19.353185)"
                         id="g4186-3">
                        <g
                           transform="translate(-400.50475,-509.14629)"
                           inkscape:label="Capa 1"
                           id="layer1-3-6">
                          <g
                             inkscape:label="Capa 1"
                             id="layer1-2"
                             transform="matrix(1.0037077,0,0,1.0037077,11.267145,17.846026)">
                            <g
                               transform="matrix(1.5263052,0,0,1.5263052,376.49864,-1040.1735)"
                               id="g4414-9">
                              <g
                                 id="g4180"
                                 transform="matrix(1.1526351,0,0,1.1526351,-4.8344134,-156.43331)">
                                <g
                                   transform="matrix(0.56841663,0,0,0.56841663,10.426663,1005.5718)"
                                   id="g4186-6" />
                                <g
                                   id="g4280">
                                <g
                                   inkscape:label="Capa 1"
                                   id="layer1-43"
                                   transform="matrix(0.81509151,0,0,0.81509151,-323.19965,584.90903)">
                                <g
                                   transform="translate(392.57143,-514.5642)"
                                   id="layer1-7-3"
                                   inkscape:label="Capa 1"
                                   style="fill:#ffffff;fill-opacity:1" />
                                <g
                                   id="g4240-2"
                                   transform="translate(341.79698,500.25245)">
                                <g
                                   inkscape:transform-center-y="-9.4924686"
                                   inkscape:transform-center-x="5.4653607"
                                   inkscape:label="Capa 1"
                                   id="layer1-1-56"
                                   transform="translate(-392.98822,-511.27795)">
                                <g
                                   id="layer1-3"
                                   inkscape:label="Capa 1"
                                   transform="translate(0.41988239,0.03484499)"
                                   style="stroke:#1f2a47;stroke-opacity:1">
                                <g
                                   transform="translate(440.36158,509.62534)"
                                   id="g4186-1">
                                <g
                                   style="stroke:#1f2a47;stroke-opacity:1"
                                   transform="matrix(0.52109202,0,0,0.52109202,-0.76995909,19.353185)"
                                   id="g4186-3-9">
                                <g
                                   transform="translate(-400.50475,-509.14629)"
                                   inkscape:label="Capa 1"
                                   id="layer1-3-6-6">
                                <g
                                   inkscape:label="Capa 1"
                                   id="layer1-2-7"
                                   transform="matrix(1.0037077,0,0,1.0037077,11.267145,17.846026)">
                                <g
                                   transform="matrix(1.5263052,0,0,1.5263052,376.49864,-1040.1735)"
                                   id="g4414-9-4">
                                <g
                                   id="g4180-0"
                                   transform="matrix(1.1526351,0,0,1.1526351,-4.8344134,-156.43331)">
                                <g
                                   transform="matrix(0.56841663,0,0,0.56841663,10.426663,1005.5718)"
                                   id="g4186-6-1" />
                                <g
                                   transform="matrix(1.3450549,0,0,1.3333333,18.712469,-337.62048)"
                                   id="g4259">
                                <g
                                   transform="matrix(0.49019093,0,0,0.49019093,12.268743,518.1207)"
                                   id="g4246-5">
                                <path
                                   style="opacity:1;fill:#ffffff;fill-opacity:1;fill-rule:evenodd;stroke:none;stroke-width:1px;stroke-linecap:butt;stroke-linejoin:miter;stroke-opacity:1"
                                   d="M 16.636719 3.0097656 L 10.601562 3.5703125 L 4.3769531 3.5703125 C 3.6075249 3.5137815 3.2949219 3.5843291 3.2949219 4.2753906 L 3.2949219 17.560547 C 3.2465937 18.318904 3.5662557 18.302734 4.3144531 18.302734 L 10.669922 18.302734 L 16.6875 19 C 17.413213 19 17.417966 18.658748 17.371094 17.900391 L 17.421875 3.8476562 C 17.421875 3.1565947 17.383026 2.9532346 16.636719 3.0097656 z M 15.417969 7.4980469 L 15.417969 8.7285156 L 14.796875 8.7285156 L 14.796875 8.1132812 L 10.808594 8.1132812 L 8.0488281 12.851562 L 7.6914062 13.464844 L 6.3671875 11.191406 L 5.4804688 11.191406 L 5.4804688 10.576172 L 6.7226562 10.576172 L 6.7246094 10.576172 L 7.6894531 12.234375 L 10.449219 7.5 L 15.417969 7.4980469 z M 12.3125 9.3476562 C 12.792756 9.3476562 13.224971 9.5304348 13.554688 9.8242188 L 13.554688 9.3476562 L 14.175781 9.3476562 L 14.175781 11.193359 L 14.175781 13.041016 L 13.554688 13.041016 L 13.554688 12.564453 C 13.224971 12.858243 12.792756 13.041016 12.3125 13.041016 C 11.280276 13.041016 10.449219 12.216588 10.449219 11.193359 C 10.449219 10.170171 11.280276 9.3476562 12.3125 9.3476562 z M 12.3125 9.9628906 C 11.624335 9.9628906 11.070312 10.511243 11.070312 11.193359 C 11.070312 11.875527 11.624335 12.425781 12.3125 12.425781 C 13.000624 12.425781 13.554688 11.875527 13.554688 11.193359 C 13.554688 10.511243 13.000624 9.9628906 12.3125 9.9628906 z M 5.4863281 13.650391 L 15.412109 13.650391 C 15.416171 13.650391 15.417969 13.788408 15.417969 13.958984 C 15.417969 14.129515 15.415591 14.265625 15.412109 14.265625 L 5.4863281 14.265625 C 5.4822667 14.265625 5.4804688 14.129515 5.4804688 13.958984 C 5.4804688 13.788408 5.4828469 13.650391 5.4863281 13.650391 z M 9.8339844 14.882812 L 11.064453 14.882812 C 11.068515 14.882812 11.070312 15.018888 11.070312 15.189453 C 11.070312 15.359972 11.067934 15.498047 11.064453 15.498047 L 9.8339844 15.498047 C 9.829923 15.498047 9.828125 15.359972 9.828125 15.189453 C 9.828125 15.018888 9.8305032 14.882812 9.8339844 14.882812 z "
                                   transform="matrix(1.6483135,0,0,1.6628042,4.3368789,1006.5102)"
                                   id="path4248-0" />
                                <path
                                   style="opacity:1;fill:none;fill-opacity:1;fill-rule:evenodd;stroke:#ffffff;stroke-width:0.54773819;stroke-linecap:butt;stroke-linejoin:miter;stroke-miterlimit:4;stroke-dasharray:none;stroke-opacity:1"
                                   d="m 34.348526,1036.9367 -1.2517,0 -1.233284,-2.2737 0,-19.9506 0.84504,-2.2737 1.639944,0 c 0.386304,-0.094 0.417389,0.023 0.417389,1.1721 l 0,22.0916 c 0.02426,1.261 -0.04175,1.2343 -0.417389,1.2343 z"
                                   id="path4248-6-8"
                                   inkscape:connector-curvature="0"
                                   sodipodi:nodetypes="ccccccccc" />
                                <g
                                   id="g4400-0-2"
                                   transform="translate(23.76951,0.13639152)"
                                   style="fill:#9aa6b3;fill-opacity:1" />
                                </g>
                                <g
                                   inkscape:label="Capa 1"
                                   id="layer1-5"
                                   transform="matrix(0.46879566,0,0,0.46879566,-165.61908,773.30289)">
                                <g
                                   transform="translate(392.57143,-514.5642)"
                                   id="layer1-7-1"
                                   inkscape:label="Capa 1"
                                   style="fill:#ffffff;fill-opacity:1" />
                                <g
                                   id="g4240-1"
                                   transform="translate(341.79698,500.25245)">
                                <g
                                   inkscape:transform-center-y="-9.4924686"
                                   inkscape:transform-center-x="5.4653607"
                                   inkscape:label="Capa 1"
                                   id="layer1-1-2"
                                   transform="translate(-392.98822,-511.27795)">
                                <g
                                   id="layer1-3-69"
                                   inkscape:label="Capa 1"
                                   transform="translate(0.41988239,0.03484499)" />
                                </g>
                                <g
                                   id="g15209"
                                   transform="translate(-19.057982,-5.554605)">
                                <g
                                   inkscape:transform-center-y="-9.4924686"
                                   inkscape:transform-center-x="5.4653607"
                                   inkscape:label="Capa 1"
                                   id="layer1-72"
                                   transform="translate(-392.98822,-511.27795)">
                                <g
                                   id="g19280"
                                   transform="translate(391.23463,518.32854)">
                                <g
                                   inkscape:transform-center-y="-9.4924686"
                                   inkscape:transform-center-x="5.4653607"
                                   inkscape:label="Capa 1"
                                   id="layer1-78"
                                   transform="translate(-392.98822,-511.27795)" />
                                </g>
                                </g>
                                </g>
                                </g>
                                </g>
                                </g>
                                </g>
                                </g>
                                </g>
                                </g>
                                </g>
                                </g>
                                </g>
                                </g>
                                </g>
                                </g>
                                </g>
                              </g>
                            </g>
                          </g>
                        </g>
                      </g>
                    </g>
                  </g>
                </g>
              </g>
            </g>
          </g>
        </g>
      </g>
    </g>
  </g>
</svg>

<svg xmlns="http://www.w3.org/2000/svg" viewBox="0 0 22 22"><defs><clipPath><path fill="#00f" fill-opacity=".514" d="m-7 1024.36h34v34h-34z"/></clipPath><clipPath><path fill="#aade87" fill-opacity=".472" d="m-6 1028.36h32v32h-32z"/></clipPath></defs><g transform="matrix(.60668 0 0 .60139-2.63-605.34)" stroke="#1f2a47" fill-rule="evenodd"><path d="m16.637 3.01l-6.04.561h-6.225c-.769-.057-1.082.014-1.082.705v13.285c-.048.758.271.742 1.02.742h6.355l6.02.697c.726 0 .73-.341.684-1.1l.051-14.05c0-.691-.039-.894-.785-.838m-1.219 4.488v1.23h-.621v-.615h-3.988l-2.76 4.738-.357.613-1.324-2.273h-.887v-.615h1.242.002l.965 1.658 2.76-4.734 4.969-.002m-3.105 1.85c.48 0 .912.183 1.242.477v-.477h.621v1.846 1.848h-.621v-.477c-.33.294-.762.477-1.242.477-1.032 0-1.863-.824-1.863-1.848 0-1.023.831-1.846 1.863-1.846m0 .615c-.688 0-1.242.548-1.242 1.23 0 .682.554 1.232 1.242 1.232.688 0 1.242-.55 1.242-1.232 0-.682-.554-1.23-1.242-1.23m-6.826 3.688h9.926c.004 0 .006.138.006.309 0 .171-.002.307-.006.307h-9.926c-.004 0-.006-.136-.006-.307 0-.171.002-.309.006-.309m4.348 1.232h1.23c.004 0 .006.136.006.307 0 .171-.002.309-.006.309h-1.23c-.004 0-.006-.138-.006-.309 0-.171.002-.307.006-.307" transform="matrix(1.64831 0 0 1.6628 4.337 1006.51)" fill="#fff" stroke="none"/><path d="m34.35 1036.94h-1.252l-1.233-2.274v-19.951l.845-2.274h1.64c.386-.094.417.023.417 1.172v22.09c.024 1.261-.042 1.234-.417 1.234z" fill="none" stroke="#fff" stroke-width=".548"/></g></svg>
